X:1
L:1/8
M:2/2
K:D
 DF F2 D2 FE | DF F2 AFEF | DF F2 D2 ed | cABG AFEF :: A2 A2 EA A2 | A2 A2 BG G2 |1 A2 A2 EAAB | 
 =cABG AGEG :|2 A2 A2 E2 ag | fgef dBAF |:""^variations"" DF F2 D2 fe | dF F2 AEFE | DF F2 Dfed |1 
 c2 AG EFGE :|2 cAAG EFGE |: A2 A2 EA A2 | EA A2 BAGB |1 A2 A2 EAAB | =cAAG EFGE :|2 A2 a2 abag | 
 f2 ef dBAF |:""^more variations"" DFFE F3 E | DF F2 AFEF | DFFE D2 Ad |1 cAAG EFGE :|2 cAAG EFGE |: 
 A4 A2 GE | A2 GA BAGB |1 A2 A2 A3 B | =cBcG EFGE :|2 A2 a2 a3 g | fdef dBAF ||
